static/icons/calendar.svg

<svg xmlns="http://www.w3.org/2000/svg" width="24" height="24" viewBox="0 0 24 24">
  <path fill-rule="evenodd" d="M6.14285714,18.8571429 L8.71428571,18.8571429 L8.71428571,16.2857143 L6.14285714,16.2857143 L6.14285714,18.8571429 Z M9.28571429,18.8571429 L12.1428571,18.8571429 L12.1428571,16.2857143 L9.28571429,16.2857143 L9.28571429,18.8571429 Z M6.14285714,15.7142857 L8.71428571,15.7142857 L8.71428571,12.8571429 L6.14285714,12.8571429 L6.14285714,15.7142857 Z M9.28571429,15.7142857 L12.1428571,15.7142857 L12.1428571,12.8571429 L9.28571429,12.8571429 L9.28571429,15.7142857 Z M6.14285714,12.2857143 L8.71428571,12.2857143 L8.71428571,9.71428571 L6.14285714,9.71428571 L6.14285714,12.2857143 Z M12.7142857,18.8571429 L15.5714286,18.8571429 L15.5714286,16.2857143 L12.7142857,16.2857143 L12.7142857,18.8571429 Z M9.28571429,12.2857143 L12.1428571,12.2857143 L12.1428571,9.71428571 L9.28571429,9.71428571 L9.28571429,12.2857143 Z M16.1428571,18.8571429 L18.7142857,18.8571429 L18.7142857,16.2857143 L16.1428571,16.2857143 L16.1428571,18.8571429 Z M12.7142857,15.7142857 L15.5714286,15.7142857 L15.5714286,12.8571429 L12.7142857,12.8571429 L12.7142857,15.7142857 Z M9.57142857,8 L9.57142857,5.42857143 C9.57142857,5.27678571 9.4375,5.14285714 9.28571429,5.14285714 L8.71428571,5.14285714 C8.5625,5.14285714 8.42857143,5.27678571 8.42857143,5.42857143 L8.42857143,8 C8.42857143,8.15178571 8.5625,8.28571429 8.71428571,8.28571429 L9.28571429,8.28571429 C9.4375,8.28571429 9.57142857,8.15178571 9.57142857,8 Z M16.1428571,15.7142857 L18.7142857,15.7142857 L18.7142857,12.8571429 L16.1428571,12.8571429 L16.1428571,15.7142857 Z M12.7142857,12.2857143 L15.5714286,12.2857143 L15.5714286,9.71428571 L12.7142857,9.71428571 L12.7142857,12.2857143 Z M16.1428571,12.2857143 L18.7142857,12.2857143 L18.7142857,9.71428571 L16.1428571,9.71428571 L16.1428571,12.2857143 Z M16.4285714,8 L16.4285714,5.42857143 C16.4285714,5.27678571 16.2946429,5.14285714 16.1428571,5.14285714 L15.5714286,5.14285714 C15.4196429,5.14285714 15.2857143,5.27678571 15.2857143,5.42857143 L15.2857143,8 C15.2857143,8.15178571 15.4196429,8.28571429 15.5714286,8.28571429 L16.1428571,8.28571429 C16.2946429,8.28571429 16.4285714,8.15178571 16.4285714,8 Z M19.8571429,7.42857143 L19.8571429,18.8571429 C19.8571429,19.4821429 19.3392857,20 18.7142857,20 L6.14285714,20 C5.51785714,20 5,19.4821429 5,18.8571429 L5,7.42857143 C5,6.80357143 5.51785714,6.28571429 6.14285714,6.28571429 L7.28571429,6.28571429 L7.28571429,5.42857143 C7.28571429,4.64285714 7.92857143,4 8.71428571,4 L9.28571429,4 C10.0714286,4 10.7142857,4.64285714 10.7142857,5.42857143 L10.7142857,6.28571429 L14.1428571,6.28571429 L14.1428571,5.42857143 C14.1428571,4.64285714 14.7857143,4 15.5714286,4 L16.1428571,4 C16.9285714,4 17.5714286,4.64285714 17.5714286,5.42857143 L17.5714286,6.28571429 L18.7142857,6.28571429 C19.3392857,6.28571429 19.8571429,6.80357143 19.8571429,7.42857143 Z"/>
</svg>

<svg xmlns="http://www.w3.org/2000/svg" width="24" height="24">
    <path fill-rule="evenodd" d="M6.143 18.857h2.571v-2.571H6.143v2.571zm3.143 0h2.857v-2.571H9.286v2.571zm-3.143-3.143h2.571v-2.857H6.143v2.857zm3.143 0h2.857v-2.857H9.286v2.857zm-3.143-3.428h2.571V9.714H6.143v2.572zm6.571 6.571h2.857v-2.571h-2.857v2.571zm-3.428-6.571h2.857V9.714H9.286v2.572zm6.857 6.571h2.571v-2.571h-2.571v2.571zm-3.429-3.143h2.857v-2.857h-2.857v2.857zM9.571 8V5.429a.294.294 0 0 0-.285-.286h-.572a.294.294 0 0 0-.285.286V8c0 .152.133.286.285.286h.572A.294.294 0 0 0 9.57 8zm6.572 7.714h2.571v-2.857h-2.571v2.857zm-3.429-3.428h2.857V9.714h-2.857v2.572zm3.429 0h2.571V9.714h-2.571v2.572zM16.429 8V5.429a.294.294 0 0 0-.286-.286h-.572a.294.294 0 0 0-.285.286V8c0 .152.134.286.285.286h.572A.294.294 0 0 0 16.429 8zm3.428-.571v11.428A1.15 1.15 0 0 1 18.714 20H6.143A1.15 1.15 0 0 1 5 18.857V7.43a1.15 1.15 0 0 1 1.143-1.143h1.143V5.43c0-.787.643-1.43 1.428-1.43h.572c.785 0 1.428.643 1.428 1.429v.857h3.429v-.857c0-.786.643-1.429 1.428-1.429h.572c.786 0 1.428.643 1.428 1.429v.857h1.143a1.15 1.15 0 0 1 1.143 1.143z"/>
</svg>
